assets/Pile of poo/Flat/pile_of_poo_flat.svg

<svg width="32" height="32" viewBox="0 0 32 32" fill="none" xmlns="http://www.w3.org/2000/svg">
<path d="M22.0722 6.65937C22.1975 7.71783 22.009 8.3944 21.7633 8.79309C23.7919 9.35325 25.6416 10.7668 26.5058 12.6136C27.1307 14.1446 27.166 15.9717 26.6978 17.64C29.1812 18.8467 31 21.5467 31 24.4286C31 28.1505 28.277 30.8278 24.4257 31.0533V31.0687H9.02984V31.0653C4.26055 30.9491 1.99999 27.7486 2 24.0233C2.00001 21.5293 4.14893 18.5528 6.54851 17.5321C6.54734 17.3134 6.56912 17.1465 6.60527 17.0206C5.67635 15.1416 6.62616 13.241 7.22304 12.5201C7.30275 12.4183 7.37767 12.3206 7.45 12.2269L7.45989 12.2137C8.29077 11.1309 8.7914 10.4784 12.355 8.93508C16.2419 7.25168 17.6236 5.59945 18.155 4.92921C18.3013 4.7446 18.4361 4.50446 18.5752 4.25678C18.9414 3.60456 19.3377 2.899 20.0529 3.012C21.0398 3.16787 21.8141 4.47719 22.0722 6.65937Z" fill="#B35F47"/>
<path d="M12.625 25.1586C15.2604 25.1586 17.5664 25.1586 20.5312 25.1586C20.5312 27.5375 18.7614 29.0771 16.5781 29.0771C14.3949 29.0771 12.625 27.6006 12.625 25.1586Z" fill="#F92F60"/>
<path fill-rule="evenodd" clip-rule="evenodd" d="M15.5853 19.6188C15.5853 22.0959 13.5773 24.1039 11.1003 24.1039C8.62326 24.1039 6.61523 22.0959 6.61523 19.6188C6.61523 17.1418 8.62326 15.1338 11.1003 15.1338C13.5773 15.1338 15.5853 17.1418 15.5853 19.6188ZM26.4844 19.6188C26.4844 22.0959 24.4764 24.1039 21.9993 24.1039C19.5223 24.1039 17.5143 22.0959 17.5143 19.6188C17.5143 17.1418 19.5223 15.1338 21.9993 15.1338C24.4764 15.1338 26.4844 17.1418 26.4844 19.6188Z" fill="white"/>
<path fill-rule="evenodd" clip-rule="evenodd" d="M12.0152 22.1312C13.3868 22.1312 14.4987 21.0193 14.4987 19.6477C14.4987 18.2762 13.3868 17.1643 12.0152 17.1643C10.6437 17.1643 9.5318 18.2762 9.5318 19.6477C9.5318 21.0193 10.6437 22.1312 12.0152 22.1312ZM21.0265 22.1312C22.3981 22.1312 23.51 21.0193 23.51 19.6477C23.51 18.2762 22.3981 17.1643 21.0265 17.1643C19.655 17.1643 18.5431 18.2762 18.5431 19.6477C18.5431 21.0193 19.655 22.1312 21.0265 22.1312Z" fill="#402A32"/>
</svg>

<svg xmlns="http://www.w3.org/2000/svg" width="32" height="32" fill="none"><path fill="#B35F47" d="M22.072 6.66c.126 1.058-.063 1.734-.309 2.133 2.029.56 3.879 1.974 4.743 3.82.625 1.532.66 3.359.192 5.027C29.18 18.847 31 21.547 31 24.429c0 3.722-2.723 6.399-6.574 6.624v.016H9.03v-.004C4.26 30.95 2 27.75 2 24.023c0-2.494 2.149-5.47 4.549-6.49-.002-.22.02-.387.056-.512-.929-1.88.021-3.78.618-4.5l.227-.294.01-.013c.83-1.083 1.331-1.736 4.895-3.279 3.887-1.683 5.269-3.336 5.8-4.006.146-.184.281-.425.42-.672.366-.652.763-1.358 1.478-1.245.987.156 1.761 1.465 2.02 3.647Z"/><path fill="#F92F60" d="M12.625 25.159h7.906c0 2.379-1.77 3.918-3.953 3.918s-3.953-1.476-3.953-3.918Z"/><path fill="#fff" fill-rule="evenodd" d="M15.585 19.619a4.485 4.485 0 1 1-8.97 0 4.485 4.485 0 0 1 8.97 0Zm10.9 0a4.485 4.485 0 1 1-8.97 0 4.485 4.485 0 0 1 8.97 0Z" clip-rule="evenodd"/><path fill="#402A32" fill-rule="evenodd" d="M12.015 22.131a2.483 2.483 0 1 0 0-4.967 2.483 2.483 0 0 0 0 4.967Zm9.011 0a2.483 2.483 0 1 0 0-4.967 2.483 2.483 0 0 0 0 4.967Z" clip-rule="evenodd"/></svg>
